X: 17
T:Falling About
% Nottingham Music Database
S:Mick Peat
M:4/4
L:1/4
K:E
"E"eE (3G/2F/2E/2B/2G/2|c/2B/2G/2B/2 c/2B/2c/2d/2|c/2B/2G/2B/2 c/2B/2c/2d/2|\
"D"=d/2B/2A/2F/2 A/2B/2d/2^d/2|
c/2B/2G/2B/2 c/2B/2c/2d/2|c/2B/2G/2B/2 c/2B/2c/2d/2|\
e/2A/2(3c/2B/2A/2 f/2B/2(3d/2c/2B/2|e/2E/2(3G/2F/2E/2 e2:|
K:A
"A"e2 e/2A/2(3c/2B/2A/2|e/2c/2f/2d/2 =G/2e/2(3f/2e/2d/2|\
K:A
"A"e2 e/2A/2(3c/2B/2A/2|"G"d/2=G/2d/2B/2 e/2c/2(3f/2e/2d/2|
"A"e2 e/2A/2(3c/2B/2A/2|e/2c/2f/2d/2 =G/2e/2(3f/2e/2d/2|\
"A"e/2A/2(3c/2B/2A/2 "G"d/2=G/2(3B/2A/2G/2|"A"a/2A/2(3c/2B/2A/2 a2:|


